X:1
T:Title
%%score { ( 1 2 ) | ( 3 4 ) }
L:1/8
Q:1/4=100
M:4/4
K:Eb
V:1 treble nm="Grand Piano"
V:2 treble 
V:3 bass 
V:4 bass 
V:1
 [EG]2 [FG]2 [EG]2 Ac | B3 A [B,EG]4 | [B,EG]2 .[B,DF]2 [G,CE]2 C-[CA] | G3 F E4 | B2 B2 B2 Be | %5
w: Mrs.~F.~W.~Tunnel * * * *|||||
 ed .[DAc]2 [EGB]4 | fedc B2 GB | [GB][FA][FA]F G4 | fedc [EB]2 [Ee]2 | edcd [Ge]4 |] %10
w: |||||
V:2
 z4 z2 C2 | E2 D2 z4 | z4 z2 .[A,F]2 | [B,E]2 [A,D]2 z4 | z4 z2 G2 | x8 | x8 | x8 | z2 E2 z4 | %9
 A2 A2 z4 |] %10
V:3
 [E,B,]2 [D,=B,]2 [C,C]2 [A,,F,]2 | [B,,G,]2 F,B, E,4 | E,2 z A, C,2 z F, | B,,2 B,,2 [E,G,]4 | %4
 [E,G,E]2 [F,A,D]2 [G,B,E]2 [E,B,]2 | [B,A]2 z[K:treble] B E,4 | [A,CA]2 [=A,E_G]2 [B,E=G]2 EG | %7
 [B,,B,]2 z D [E,B,E]4 | [A,CA]2 [A,,F,][=A,,_G,] [B,,=G,]2 [=B,,=A,]2 | %9
 [B,,B,]2 [B,,B,]2 [E,B,]4 |] %10
V:4
 x8 | z2 B,,2 z4 | z2 B,,2 z2 A,,2 | x8 | x8 | z2 B,,2[K:treble] z4 | z4 z2 B,2 | z2 [B,,B,]2 z4 | %8
 x8 | x8 |] %10

